; HEADER_BLOCK_START
; generated by OrcaSlicer 2.3.0 on 2025-05-09 at 01:27:17
; total layer number: 240
;_GP_TOTAL_LAYER_NUMBER_PLACEHOLDER
; filament_density: 1.26
; filament_diameter: 1.75
; max_z_height: 48.00
; HEADER_BLOCK_END

; THUMBNAIL_BLOCK_START

;
; THUMBNAIL_BLOCK_END

; THUMBNAIL_BLOCK_START

;
; THUMBNAIL_BLOCK_END

; external perimeters extrusion width = 0.45mm
; perimeters extrusion width = 0.45mm
; infill extrusion width = 0.45mm
; solid infill extrusion width = 0.45mm
; top infill extrusion width = 0.40mm

; EXECUTABLE_BLOCK_START
M73 P0 R65
M201 X10000 Y10000 Z500 E5000
M203 X500 Y500 Z10 E60
M204 P10000 R1000 T10000
M205 X8.00 Y8.00 Z0.40 E5.00 ; sets the jerk limits, mm/sec
;TYPE:Custom
G90 ; use absolute coordinates
M83 ; extruder relative mode
M204 S10000 T1000
M104 S220 ; set extruder temp
M140 S55 ; set bed temp
G28 ; home all
G1 Y1.0 Z0.3 F1000 ; move print head up
M190 S55 ; wait for bed temp
M109 S220 ; wait for extruder temp
G92 E0.0
; initial load
G1 X205.0 E19 F1000
G1 Y1.6
G1 X5.0 E19 F1000
G92 E0.0
; intro line
G1 Y2.0 Z0.2 F1000
G1 X65.0 E9.0 F1000
G1 X105.0 E12.5 F1000
G92 E0.0
G90
G21
M83 ; use relative distances for extrusion
; Filament gcode
M106 S0
;LAYER_CHANGE
;Z:0.2
;HEIGHT:0.2
;BEFORE_LAYER_CHANGE
;0.2
G92 E0

G1 E-.9 F2700
;AFTER_LAYER_CHANGE
;0.2
;_SET_FAN_SPEED_CHANGING_LAYER
M204 S300
G1 X27.114 Y41.063 F7200
G1 Z.6
G1 Z.2
G1 E.9 F2100
;TYPE:Skirt
;WIDTH:0.45
G1 F3000
G1 X50.302 Y39.699 E.77052
G1 X52.284 Y39.843 E.06593
G1 X54.493 Y40.285 E.0747
G1 X56.637 Y41.016 E.07517
G1 X58.695 Y42.044 E.0763
G1 X60.578 Y43.322 E.07547
G1 X62.252 Y44.82 E.07453
G1 X63.714 Y46.52 E.07437
G1 X64.937 Y48.403 E.07447
G1 X65.263 Y49.371 E.03389
G1 X65.31 Y50.282 E.03027
G1 X65.107 Y51.204 E.03128
G1 X64.535 Y52.284 E.04056
G1 X63.372 Y53.921 E.06661
G1 X62.205 Y55.228 E.05811
G1 X60.836 Y56.472 E.06136
G1 X59.213 Y57.64 E.06631
G1 X57.245 Y58.716 E.07443
G1 X56.209 Y59.156 E.03731
G1 X54.766 Y59.64 E.05048
G1 X52.37 Y60.145 E.08124
G1 X49.763 Y60.3 E.08665
G1 X25.438 Y58.832 E.80835
G1 X24.628 Y58.659 E.0275
G1 X23.768 Y58.26 E.03146
G1 X23.039 Y57.673 E.03102
G1 X22.529 Y57.017 E.02757
G1 X22.111 Y56.098 E.03348
G1 X21.93 Y55.055 E.03513
G1 X21.937 Y44.831 E.33913
G1 X22.111 Y43.902 E.03137
G1 X22.524 Y42.989 E.03324
G1 X23.112 Y42.255 E.0312
G1 X23.763 Y41.743 E.02747
G1 X24.733 Y41.309 E.03523
G1 X25.643 Y41.149 E.03066
G1 X27.074 Y41.065 E.04754
; printing object 3DBenchy.stl id:6580575 copy 0
G1 E-.9 F2700
G1 X33.69 Y44.871 Z.6 F7200
G1 X46.42 Y52.193 Z.6
G1 Z.2
G1 E.9 F2100
;TYPE:Brim
G1 F1800
G1 X46.552 Y52.045 E.00655
G1 X46.676 Y51.99 E.0045
G1 X46.816 Y51.982 E.00465
G1 X46.948 Y52.021 E.0046
G1 X47.07 Y52.123 E.00524
G1 X47.138 Y52.252 E.00485
G1 X47.153 Y52.414 E.00542
G1 X47.093 Y52.573 E.00563
G1 X46.996 Y52.677 E.00472
G1 X46.854 Y52.742 E.0052
G1 X46.708 Y52.745 E.00483
G1 X46.576 Y52.7 E.00464
G1 X46.451 Y52.589 E.00552
G1 X46.388 Y52.435 E.00553
G1 X46.388 Y52.294 E.0047
G1 X46.408 Y52.231 E.0022
G1 E-.9 F2700
G1 X44.702 Y51.389 Z.6 F7200
G1 Z.2
G1 E.9 F2100
G1 F1800
G1 X44.669 Y51.456 E.00248
G1 X44.578 Y51.595 E.00551
G1 X44.422 Y51.78 E.00803
G1 X44.182 Y51.982 E.0104
G1 X43.995 Y52.088 E.00715
G1 X43.871 Y52.137 E.00441
G1 X43.517 Y52.221 E.01208
G1 X43.297 Y52.249 E.00736
G1 X42.836 Y52.273 E.01531
G1 X42.002 Y52.266 E.02766
G1 X41.731 Y52.29 E.00903
G1 X41.745 Y48.035 E.14113
G1 X41.717 Y47.647 E.01291
G1 X42.122 Y47.658 E.01343
G1 X42.939 Y47.66 E.02709
G1 X43.399 Y47.691 E.01528
G1 X43.829 Y47.769 E.01452
G1 X44.093 Y47.864 E.00929
G1 X44.299 Y47.996 E.00811
G1 X44.535 Y48.233 E.01109
G1 X44.667 Y48.428 E.00783
G1 X44.83 Y48.773 E.01263
G1 X44.96 Y49.279 E.01735
G1 X45.002 Y49.681 E.01339
G1 X45.01 Y49.975 E.00977
G1 X44.968 Y50.541 E.01884
G1 X44.863 Y51.012 E.01598
G1 X44.795 Y51.201 E.00666
G1 X44.72 Y51.353 E.00563
G1 X44.566 Y51.253 F7200
G1 F1800
G1 X44.345 Y51.593 E.01344
G1 X44.066 Y51.835 E.01228
G1 X43.752 Y51.981 E.01146
G1 X43.488 Y52.039 E.00898
G1 X43.216 Y52.072 E.00909
G1 X42.4 Y52.096 E.02707
G1 X42.219 Y52.047 E.00624
G1 X42.097 Y51.964 E.00489
G1 X42.01 Y51.862 E.00445
G1 X41.939 Y51.709 E.0056
G1 X41.909 Y51.472 E.00791
G1 X41.927 Y51.192 E.00932
G1 X41.922 Y48.302 E.09586
G1 X41.958 Y48.135 E.00567
G1 X42.019 Y48.027 E.00411
G1 X42.112 Y47.942 E.00417
G1 X42.241 Y47.883 E.00471
G1 X42.404 Y47.85 E.00554
G1 X43.328 Y47.87 E.03064
G1 X43.639 Y47.916 E.01044
G1 X43.974 Y48.015 E.01157
G1 X44.133 Y48.106 E.00609
G1 X44.377 Y48.331 E.01101
G1 X44.549 Y48.595 E.01045
G1 X44.677 Y48.9 E.01099
G1 X44.79 Y49.4 E.01699
G1 X44.824 Y49.94 E.01795
G1 X44.801 Y50.39 E.01494
G1 X44.725 Y50.819 E.01444
G1 X44.582 Y51.216 E.01402
G1 E-.9 F2700
G1 X36.95 Y51.205 Z.6 F7200
G1 X27.017 Y51.191 Z.6
G1 Z.2
G1 E.9 F2100
;TYPE:Inner wall
;WIDTH:0.449999
G1 F1800
G1 X26.908 Y51.054 E.00581
G1 X26.759 Y50.668 E.01374
G1 X26.696 Y49.92 E.02488
G1 X26.739 Y49.417 E.01675
G1 X26.826 Y49.056 E.01232
G1 X26.987 Y48.743 E.01167
G1 X27.268 Y48.553 E.01126
G1 X27.51 Y48.511 E.00814
G1 X27.768 Y48.58 E.00886
G1 X28.28 Y48.878 E.01966
G1 X28.702 Y48.996 E.01454
G1 X29.032 Y49.021 E.01099
G1 X29.497 Y48.826 E.01671
G1 X29.724 Y48.577 E.01115
G1 X29.942 Y48.179 E.01507
G1 X30.328 Y48.542 E.01759
G1 X30.623 Y48.646 E.01038
G1 X31.163 Y48.652 E.01789
G1 X31.682 Y48.622 E.01727
G1 X31.65 Y49.154 E.01768
G1 X31.665 Y51.578 E.08041
G1 X31.649 Y52.716 E.03773
G1 X31.822 Y53.131 E.01491
G1 X31.954 Y53.263 E.00619
G1 X32.329 Y53.474 E.01427
G1 X32.569 Y53.527 E.00815
G1 X33.009 Y53.506 E.01461
G1 X33.346 Y53.368 E.0121
G1 X33.616 Y53.118 E.01219
G1 X33.746 Y52.882 E.00893
G1 X33.875 Y52.336 E.01863
G1 X33.859 Y51.52 E.02708
G1 X33.858 Y48.627 E.09594
G1 X34.584 Y48.628 E.02409
G1 X35.115 Y48.528 E.01792
G1 X35.449 Y48.322 E.01302
;WIDTH:0.460527
G1 X35.654 Y48.087 E.01061
G1 X35.824 Y48.372 E.01128
;WIDTH:0.449999
G1 X35.985 Y48.564 E.00832
G1 X36.325 Y48.783 E.01339
G1 X36.638 Y48.841 E.01056
G1 X36.551 Y48.922 E.00394
G1 X36.389 Y49.171 E.00984
G1 X36.255 Y49.628 E.01581
G1 X36.309 Y50.059 E.01441
G1 X36.398 Y50.293 E.00831
G1 X36.702 Y50.589 E.01408
;WIDTH:0.448768
G1 X36.936 Y50.679 E.00829
;WIDTH:0.459823
G1 X37.606 Y50.866 E.02363
;WIDTH:0.465994
G1 X37.885 Y51.086 E.01225
G1 X37.976 Y51.272 E.00713
G1 X37.925 Y51.439 E.00603
G1 X37.831 Y51.509 E.00404
G1 X37.404 Y51.228 E.01763
;WIDTH:0.45918
G1 X36.847 Y51.07 E.01961
;WIDTH:0.448768
G1 X36.607 Y51.063 E.00795
;WIDTH:0.449999
G1 X36.178 Y51.172 E.01468
G1 X35.885 Y51.394 E.01219
M73 P1 R65
G1 X35.668 Y51.698 E.01238
G1 X35.573 Y52.102 E.01377
G1 X35.595 Y52.309 E.00693
G1 X35.682 Y52.687 E.01285
G1 X35.907 Y53.049 E.01415
G1 X36.307 Y53.363 E.01687
G1 X36.505 Y53.465 E.00739
G1 X37.202 Y53.654 E.02395
G1 X37.937 Y53.681 E.02439
G1 X38.619 Y53.568 E.02293
G1 X39.104 Y53.361 E.0175
G1 X39.532 Y53.051 E.01754
G1 X39.887 Y52.64 E.018
G1 X40.15 Y52.161 E.01812
;WIDTH:0.496729
G1 X40.213 Y52.027 E.00548
;WIDTH:0.543459
G1 X40.277 Y51.893 E.00605
;WIDTH:0.590189
G1 X40.34 Y51.759 E.00661
;WIDTH:0.636918
G1 X40.404 Y51.625 E.00718
G1 X40.419 Y51.694 E.0034
;WIDTH:0.604899
G1 X40.434 Y51.837 E.00661
;WIDTH:0.566174
G1 X40.45 Y51.981 E.00616
;WIDTH:0.527449
G1 X40.465 Y52.125 E.0057
;WIDTH:0.488724
G1 X40.48 Y52.268 E.00525
;WIDTH:0.449999
G1 X40.566 Y52.795 E.01769
G1 X40.698 Y53.079 E.01042
G1 X40.983 Y53.388 E.01393
G1 X41.232 Y53.495 E.00898
G1 X41.55 Y53.548 E.0107
G1 X42.14 Y53.509 E.01964
G1 X42.877 Y53.515 E.02445
G1 X43.449 Y53.482 E.01899
G1 X43.96 Y53.4 E.01718
G1 X44.454 Y53.242 E.0172
G1 X44.791 Y53.049 E.01288
G1 X45.197 Y52.748 E.01677
G1 X45.348 Y53.157 E.01447
G1 X45.617 Y53.521 E.01503
G1 X46.115 Y53.85 E.01979
G1 X46.342 Y53.934 E.00803
G1 X46.754 Y53.995 E.01382
G1 X47.264 Y53.914 E.01712
G1 X47.488 Y53.82 E.00805
G1 X47.946 Y53.495 E.01864
G1 X48.144 Y53.196 E.0119
G1 X48.206 Y53.307 E.00422
G1 X48.489 Y53.558 E.01254
G1 X48.97 Y53.699 E.01662
G1 X49.262 Y53.689 E.00969
G1 X49.557 Y53.561 E.0107
G1 X49.805 Y53.328 E.01126
G1 X50.117 Y52.922 E.01701
G1 X50.432 Y53.39 E.0187
G1 X50.748 Y53.627 E.01311
G1 X51.151 Y53.728 E.0138
;WIDTH:0.491884
G1 X51.346 Y53.714 E.00713
;WIDTH:0.533768
G1 X51.54 Y53.7 E.00779
;WIDTH:0.575652
G1 X51.734 Y53.686 E.00846
;WIDTH:0.60482
G1 X51.911 Y53.598 E.00904
G1 X51.967 Y53.518 E.00444
;WIDTH:0.566115
G1 X52.023 Y53.439 E.00414
;WIDTH:0.52741
G1 X52.079 Y53.36 E.00383
;WIDTH:0.488705
G1 X52.136 Y53.281 E.00353
;WIDTH:0.449999
G1 X52.3 Y52.884 E.01427
G1 X52.311 Y52.494 E.01294
G1 X52.162 Y51.987 E.01752
G1 X51.883 Y51.526 E.01786
G1 X51.436 Y50.713 E.03078
G1 X51.572 Y50.418 E.01079
G1 X51.835 Y49.986 E.01676
G1 X52.154 Y49.409 E.02188
G1 X52.206 Y49.615 E.00708
G1 X52.534 Y50.428 E.02905
G1 X53.135 Y52.05 E.05737
G1 X53.386 Y52.622 E.02072
G1 X53.372 Y52.834 E.00707
G1 X53.043 Y53.616 E.02812
G1 X52.865 Y53.905 E.01127
G1 X52.689 Y54.008 E.00677
;WIDTH:0.488705
G1 X52.566 Y54.025 E.0045
;WIDTH:0.52741
G1 X52.444 Y54.041 E.00489
;WIDTH:0.566115
G1 X52.321 Y54.058 E.00528
;WIDTH:0.60482
G1 X52.198 Y54.075 E.00567
G1 X52.065 Y54.153 E.00707
;WIDTH:0.599286
G1 X51.973 Y54.275 E.00693
;WIDTH:0.549524
G1 X51.881 Y54.397 E.00631
;WIDTH:0.499762
G1 X51.789 Y54.519 E.00569
;WIDTH:0.449999
G1 X51.667 Y54.882 E.0127
G1 X51.682 Y55.241 E.01192
G1 X51.808 Y55.616 E.01312
G1 X52.043 Y55.941 E.01332
G1 X52.259 Y56.1 E.0089
G1 X52.5 Y56.207 E.00873
G1 X52.754 Y56.247 E.00854
G1 X53.137 Y56.226 E.01273
G1 X53.632 Y56.088 E.01705
G1 X53.976 Y55.902 E.01294
G1 X54.379 Y55.602 E.01668
G1 X54.695 Y55.172 E.01772
G1 X54.835 Y54.895 E.01028
G1 X55.158 Y54.13 E.02755
G1 X55.768 Y52.494 E.05794
;WIDTH:0.496723
G1 X55.881 Y52.247 E.01
;WIDTH:0.543447
G1 X55.994 Y52.001 E.01103
;WIDTH:0.590171
G1 X56.106 Y51.755 E.01206
;WIDTH:0.627044
G1 X56.302 Y51.261 E.0253
G1 X56.32 Y51.143 E.00567
;WIDTH:0.582783
G1 X56.339 Y51.026 E.00524
;WIDTH:0.538522
G1 X56.357 Y50.908 E.00481
;WIDTH:0.494261
G1 X56.376 Y50.79 E.00438
;WIDTH:0.449999
G1 X56.583 Y50.163 E.02191
G1 X56.815 Y49.633 E.01921
G1 X57.129 Y49.912 E.01393
G1 X57.377 Y50.017 E.00894
G1 X57.958 Y50.085 E.01938
G1 X57.157 Y51.19 E.04526
;WIDTH:0.494261
G1 X57.077 Y51.266 E.00407
;WIDTH:0.538522
G1 X56.996 Y51.342 E.00447
;WIDTH:0.582783
G1 X56.916 Y51.418 E.00487
;WIDTH:0.627044
G1 X56.836 Y51.495 E.00527
G1 X56.571 Y52.061 E.02978
;WIDTH:0.585597
G1 X56.549 Y52.257 E.00869
;WIDTH:0.55131
G1 X56.58 Y52.489 E.0097
;WIDTH:0.51754
G1 X56.611 Y52.721 E.00905
;WIDTH:0.48377
G1 X56.642 Y52.953 E.00841
;WIDTH:0.449999
G1 X56.798 Y53.271 E.01177
G1 X57.017 Y53.518 E.01094
G1 X57.254 Y53.647 E.00897
G1 X57.555 Y53.719 E.01026
G1 X58.231 Y53.706 E.02243
G1 X59.693 Y53.71 E.04848
G1 X59.065 Y54.257 E.0276
G1 X58.516 Y54.683 E.02305
G1 X58.021 Y55.032 E.02011
G1 X57.328 Y55.47 E.02719
G1 X56.785 Y55.777 E.02068
G1 X56.08 Y56.13 E.02615
G1 X55.216 Y56.499 E.03118
G1 X54.381 Y56.794 E.02939
G1 X53.413 Y57.065 E.03332
G1 X52.486 Y57.258 E.03143
G1 X51.645 Y57.377 E.02818
G1 X50.765 Y57.449 E.02929
G1 X49.83 Y57.465 E.03101
G1 X49.18 Y57.44 E.02159
G1 X26.281 Y56.048 E.76098
G1 X25.683 Y55.994 E.01992
G1 X25.286 Y55.859 E.01391
G1 X24.994 Y55.587 E.01324
G1 X24.807 Y55.196 E.01438
G1 X24.76 Y54.839 E.01195
G1 X24.765 Y51.868 E.09856
G1 X25.118 Y52.48 E.02344
G1 X25.521 Y52.922 E.01982
G1 X26.214 Y53.388 E.02773
G1 X26.917 Y53.622 E.02456
G1 X27.529 Y53.685 E.0204
G1 X28.298 Y53.618 E.02562
G1 X28.87 Y53.431 E.01996
G1 X29.381 Y53.109 E.02004
G1 X29.723 Y52.717 E.01725
G1 X29.947 Y52.273 E.0165
G1 X29.999 Y52.062 E.00719
G1 X29.958 Y51.732 E.01103
G1 X29.841 Y51.466 E.00964
G1 X29.716 Y51.303 E.00681
G1 X29.482 Y51.118 E.00988
G1 X29.013 Y50.926 E.01681
G1 X28.489 Y50.948 E.0174
G1 X28.146 Y51.115 E.01266
G1 X27.938 Y51.306 E.00937
G1 X27.801 Y51.396 E.00544
G1 X27.417 Y51.409 E.01275
G1 X27.059 Y51.244 E.01306
G1 X27.042 Y51.222 E.00094
G1 E-.9 F2700
G1 X24.762 Y48.085 Z.6 F7200
G1 Z.2
G1 E.9 F2100
G1 F1800
G1 X24.763 Y45.637 E.08122
G1 X24.784 Y44.946 E.02291
G1 X24.934 Y44.495 E.01578
G1 X25.115 Y44.27 E.00956
G1 X25.47 Y44.059 E.01372
G1 X25.846 Y43.978 E.01275
G1 X49.197 Y42.559 E.77603
G1 X50.279 Y42.535 E.03592
G1 X51.094 Y42.571 E.02706
G1 X51.882 Y42.651 E.02626
G1 X52.68 Y42.777 E.02679
G1 X53.254 Y42.898 E.01945
G1 X53.778 Y43.031 E.01795
G1 X54.563 Y43.267 E.02719
G1 X55.264 Y43.522 E.02474
G1 X56.412 Y44.033 E.04167
G1 X57.286 Y44.507 E.03297
G1 X57.971 Y44.935 E.0268
G1 X58.432 Y45.257 E.01867
G1 X58.841 Y45.566 E.01699
G1 X59.614 Y46.217 E.03354
G1 X60.404 Y46.997 E.03681
;WIDTH:0.455554
G1 X60.835 Y47.47 E.02151
;WIDTH:0.486118
G1 X61.18 Y47.921 E.0205
G1 X61.524 Y48.336 E.01948
;WIDTH:0.452509
G1 X61.836 Y48.776 E.018
;WIDTH:0.449999
G1 X62.119 Y49.205 E.01705
G1 X62.435 Y49.763 E.02128
G1 X62.469 Y50.127 E.01212
G1 X62.348 Y50.408 E.01016
G1 X61.919 Y51.101 E.02703
G1 X61.471 Y51.738 E.02584
G1 X61.099 Y52.216 E.02007
G1 X60.965 Y51.945 E.01003
G1 X60.66 Y51.658 E.01388
G1 X60.358 Y51.537 E.0108
G1 X59.715 Y51.469 E.02146
M73 P1 R64
G1 X60.645 Y50.157 E.05335
G1 X60.964 Y49.605 E.02117
G1 X61.078 Y49.183 E.01449
G1 X61.076 Y48.833 E.01161
;WIDTH:0.484396
G1 X60.92 Y48.34 E.0186
;WIDTH:0.499958
G1 X60.724 Y48.084 E.01201
G1 X60.475 Y47.95 E.01052
;WIDTH:0.455554
G1 X60.027 Y47.853 E.01542
;WIDTH:0.449999
G1 X57.828 Y47.855 E.07296
G1 X57.333 Y47.934 E.01663
G1 X56.938 Y48.182 E.01545
G1 X56.764 Y48.396 E.00914
G1 X56.675 Y48.265 E.00526
G1 X56.435 Y48.057 E.01053
G1 X56.019 Y47.862 E.01525
G1 X55.757 Y47.875 E.0087
G1 X55.344 Y48.022 E.01452
G1 X55.017 Y48.361 E.01563
G1 X54.768 Y48.807 E.01694
G1 X54.532 Y49.475 E.02352
G1 X54.25 Y48.608 E.03025
G1 X53.965 Y48.179 E.01709
G1 X53.493 Y47.911 E.018
G1 X52.993 Y47.855 E.01667
G1 X52.515 Y48.025 E.01684
G1 X52.307 Y48.216 E.00938
G1 X52.164 Y48.511 E.01086
G1 X52.074 Y48.335 E.00655
G1 X51.747 Y48.004 E.01542
G1 X51.515 Y47.905 E.00838
G1 X51.21 Y47.851 E.01027
G1 X50.807 Y47.959 E.01382
G1 X50.549 Y48.116 E.01004
G1 X50.169 Y48.532 E.01868
G1 X49.89 Y48.18 E.0149
G1 X49.728 Y48.038 E.00714
G1 X49.431 Y47.902 E.01085
G1 X49.213 Y47.851 E.00741
G1 X48.783 Y47.908 E.01439
G1 X48.536 Y48.031 E.00916
G1 X48.175 Y48.372 E.01647
G1 X48.043 Y48.759 E.01355
G1 X48.078 Y49.204 E.01482
G1 X48.29 Y49.714 E.01831
G1 X48.9 Y50.77 E.04047
G1 X48.652 Y51.126 E.0144
G1 X48.276 Y51.785 E.02518
G1 X48.152 Y51.511 E.00998
G1 X47.908 Y51.201 E.01309
G1 X47.465 Y50.895 E.01788
G1 X47.237 Y50.811 E.00806
G1 X46.68 Y50.735 E.01863
G1 X46.168 Y50.855 E.01745
G1 X46.24 Y50.312 E.01816
G1 X46.236 Y49.805 E.01683
G1 X46.204 Y49.255 E.01828
G1 X46.072 Y48.607 E.02194
G1 X45.88 Y48.063 E.01911
G1 X45.62 Y47.615 E.01718
G1 X45.405 Y47.365 E.01095
G1 X45.02 Y46.984 E.01796
G1 X44.545 Y46.709 E.01823
G1 X43.811 Y46.497 E.02532
G1 X42.969 Y46.418 E.02805
G1 X41.693 Y46.401 E.04234
G1 X41.209 Y46.491 E.01633
G1 X40.758 Y46.742 E.01711
G1 X40.558 Y47.039 E.0119
;WIDTH:0.453596
G1 X40.475 Y47.379 E.0117
;WIDTH:0.45702
G1 X40.499 Y48.059 E.02297
;WIDTH:0.478562
G1 X40.487 Y48.865 E.02862
;WIDTH:0.513328
G1 X40.469 Y49.063 E.00761
;WIDTH:0.548094
G1 X40.452 Y49.261 E.00818
;WIDTH:0.58286
G1 X40.434 Y49.459 E.00874
G1 X40.433 Y50.264 E.03543
;WIDTH:0.624622
G1 X40.411 Y50.983 E.03411
G1 X40.192 Y50.16 E.04038
;WIDTH:0.58286
G1 X39.989 Y49.7 E.02211
G1 X39.831 Y49.479 E.01195
G1 X39.95 Y49.28 E.01024
;WIDTH:0.571661
G1 X39.991 Y49.073 E.00907
;WIDTH:0.535836
G1 X40.032 Y48.867 E.00846
;WIDTH:0.500011
G1 X40.073 Y48.66 E.00784
;WIDTH:0.464185
G1 X40.085 Y47.899 E.02613
;WIDTH:0.453159
G1 X39.974 Y47.452 E.0154
G1 X39.632 Y46.943 E.02048
;WIDTH:0.449999
G1 X39.416 Y46.725 E.01019
G1 X38.881 Y46.422 E.0204
G1 X38.27 Y46.273 E.02088
G1 X37.542 Y46.247 E.02415
G1 X37.003 Y46.321 E.01806
G1 X36.485 Y46.517 E.01837
G1 X36.14 Y46.702 E.01298
G1 X35.726 Y47.129 E.01974
G1 X35.645 Y46.935 E.00696
G1 X35.487 Y46.703 E.00931
G1 X35.151 Y46.49 E.0132
G1 X34.776 Y46.413 E.01269
G1 X31.541 Y46.424 E.1073
G1 X30.645 Y46.404 E.02974
G1 X30.157 Y46.637 E.01795
G1 X29.918 Y46.929 E.01251
G1 X29.8 Y47.301 E.01294
G1 X29.692 Y47.135 E.00656
